static/img/kroki/8b9884ea3b121442fb2f2a33233938e5.svg

<?xml version="1.0" encoding="us-ascii" standalone="no"?><svg xmlns="http://www.w3.org/2000/svg" xmlns:xlink="http://www.w3.org/1999/xlink" contentStyleType="text/css" height="252px" preserveAspectRatio="none" style="width:456px;height:252px;" version="1.1" viewBox="0 0 456 252" width="456px" zoomAndPan="magnify"><defs/><g><!--class gcp_backend_service--><g id="elem_gcp_backend_service"><rect codeLine="22" fill="#3D176E" height="39.7891" id="gcp_backend_service" rx="2.5" ry="2.5" style="stroke:#000D19;stroke-width:0.5;" width="215" x="7" y="206.58"/><ellipse cx="22" cy="226.4745" fill="#ADD1B2" rx="11" ry="11" style="stroke:#181818;stroke-width:1.0;"/><path d="M24.9688,232.1152 Q24.3906,232.412 23.75,232.5527 Q23.1094,232.7089 22.4063,232.7089 Q19.9063,232.7089 18.5781,231.0683 Q17.2656,229.412 17.2656,226.287 Q17.2656,223.162 18.5781,221.5058 Q19.9063,219.8495 22.4063,219.8495 Q23.1094,219.8495 23.75,220.0058 Q24.4063,220.162 24.9688,220.4589 L24.9688,223.1777 Q24.3438,222.5995 23.75,222.3339 Q23.1563,222.0527 22.5313,222.0527 Q21.1875,222.0527 20.5,223.1308 Q19.8125,224.1933 19.8125,226.287 Q19.8125,228.3808 20.5,229.4589 Q21.1875,230.5214 22.5313,230.5214 Q23.1563,230.5214 23.75,230.2558 Q24.3438,229.9745 24.9688,229.3964 L24.9688,232.1152 Z " fill="#000000"/><text fill="#D9B8FF" font-family="Helvetica" font-size="17" lengthAdjust="spacing" textLength="173" x="41" y="232.3598">gcp_backend_service</text></g><!--class gcp_forwarding_rule--><g id="elem_gcp_forwarding_rule"><rect codeLine="24" fill="#3D176E" height="39.7891" id="gcp_forwarding_rule" rx="2.5" ry="2.5" style="stroke:#000D19;stroke-width:0.5;" width="212" x="127.5" y="7"/><ellipse cx="142.5" cy="26.8945" fill="#ADD1B2" rx="11" ry="11" style="stroke:#181818;stroke-width:1.0;"/><path d="M145.4688,32.5352 Q144.8906,32.832 144.25,32.9727 Q143.6094,33.1289 142.9063,33.1289 Q140.4063,33.1289 139.0781,31.4883 Q137.7656,29.832 137.7656,26.707 Q137.7656,23.582 139.0781,21.9258 Q140.4063,20.2695 142.9063,20.2695 Q143.6094,20.2695 144.25,20.4258 Q144.9063,20.582 145.4688,20.8789 L145.4688,23.5977 Q144.8438,23.0195 144.25,22.7539 Q143.6563,22.4727 143.0313,22.4727 Q141.6875,22.4727 141,23.5508 Q140.3125,24.6133 140.3125,26.707 Q140.3125,28.8008 141,29.8789 Q141.6875,30.9414 143.0313,30.9414 Q143.6563,30.9414 144.25,30.6758 Q144.8438,30.3945 145.4688,29.8164 L145.4688,32.5352 Z " fill="#000000"/><text fill="#D9B8FF" font-family="Helvetica" font-size="17" lengthAdjust="spacing" textLength="170" x="161.5" y="32.7798">gcp_forwarding_rule</text></g><!--class gcp_ssl_certificate--><g id="elem_gcp_ssl_certificate"><rect codeLine="26" fill="#3D176E" height="39.7891" id="gcp_ssl_certificate" rx="2.5" ry="2.5" style="stroke:#000D19;stroke-width:0.5;" width="192" x="257.5" y="206.58"/><ellipse cx="272.5" cy="226.4745" fill="#ADD1B2" rx="11" ry="11" style="stroke:#181818;stroke-width:1.0;"/><path d="M275.4688,232.1152 Q274.8906,232.412 274.25,232.5527 Q273.6094,232.7089 272.9063,232.7089 Q270.4063,232.7089 269.0781,231.0683 Q267.7656,229.412 267.7656,226.287 Q267.7656,223.162 269.0781,221.5058 Q270.4063,219.8495 272.9063,219.8495 Q273.6094,219.8495 274.25,220.0058 Q274.9063,220.162 275.4688,220.4589 L275.4688,223.1777 Q274.8438,222.5995 274.25,222.3339 Q273.6563,222.0527 273.0313,222.0527 Q271.6875,222.0527 271,223.1308 Q270.3125,224.1933 270.3125,226.287 Q270.3125,228.3808 271,229.4589 Q271.6875,230.5214 273.0313,230.5214 Q273.6563,230.5214 274.25,230.2558 Q274.8438,229.9745 275.4688,229.3964 L275.4688,232.1152 Z " fill="#000000"/><text fill="#D9B8FF" font-family="Helvetica" font-size="17" lengthAdjust="spacing" textLength="150" x="291.5" y="232.3598">gcp_ssl_certificate</text></g><!--class gcp_target_ssl_proxy--><g id="elem_gcp_target_ssl_proxy"><rect codeLine="28" fill="#3D176E" height="39.7891" id="gcp_target_ssl_proxy" rx="2.5" ry="2.5" style="stroke:#000D19;stroke-width:0.5;" width="216" x="125.5" y="106.79"/><ellipse cx="140.5" cy="126.6845" fill="#ADD1B2" rx="11" ry="11" style="stroke:#181818;stroke-width:1.0;"/><path d="M143.4688,132.3252 Q142.8906,132.622 142.25,132.7627 Q141.6094,132.9189 140.9063,132.9189 Q138.4063,132.9189 137.0781,131.2783 Q135.7656,129.622 135.7656,126.497 Q135.7656,123.372 137.0781,121.7158 Q138.4063,120.0595 140.9063,120.0595 Q141.6094,120.0595 142.25,120.2158 Q142.9063,120.372 143.4688,120.6689 L143.4688,123.3877 Q142.8438,122.8095 142.25,122.5439 Q141.6563,122.2627 141.0313,122.2627 Q139.6875,122.2627 139,123.3408 Q138.3125,124.4033 138.3125,126.497 Q138.3125,128.5908 139,129.6689 Q139.6875,130.7314 141.0313,130.7314 Q141.6563,130.7314 142.25,130.4658 Q142.8438,130.1845 143.4688,129.6064 L143.4688,132.3252 Z " fill="#000000"/><text fill="#D9B8FF" font-family="Helvetica" font-size="17" lengthAdjust="spacing" textLength="174" x="159.5" y="132.5698">gcp_target_ssl_proxy</text></g><!--link gcp_forwarding_rule to gcp_target_ssl_proxy--><g id="link_gcp_forwarding_rule_gcp_target_ssl_proxy"><path codeLine="30" d="M233.5,47.22 C233.5,64.36 233.5,83.27 233.5,100.41 " fill="none" id="gcp_forwarding_rule-to-gcp_target_ssl_proxy" style="stroke:#1A83AF;stroke-width:2.0;"/><polygon fill="#1A83AF" points="233.5,106.41,237.5,97.41,233.5,101.41,229.5,97.41,233.5,106.41" style="stroke:#1A83AF;stroke-width:2.0;"/></g><!--link gcp_target_ssl_proxy to gcp_backend_service--><g id="link_gcp_target_ssl_proxy_gcp_backend_service"><path codeLine="31" d="M209.99,147.01 C189.13,164.15 163.4449,185.2498 142.5949,202.3898 " fill="none" id="gcp_target_ssl_proxy-to-gcp_backend_service" style="stroke:#1A83AF;stroke-width:2.0;"/><polygon fill="#1A83AF" points="137.96,206.2,147.4525,203.5747,141.8224,203.0248,142.3722,197.3948,137.96,206.2" style="stroke:#1A83AF;stroke-width:2.0;"/></g><!--link gcp_target_ssl_proxy to gcp_ssl_certificate--><g id="link_gcp_target_ssl_proxy_gcp_ssl_certificate"><path codeLine="32" d="M257.21,147.01 C278.25,164.15 304.17,185.2683 325.19,202.4083 " fill="none" id="gcp_target_ssl_proxy-to-gcp_ssl_certificate" style="stroke:#1A83AF;stroke-width:2.0;"/><polygon fill="#1A83AF" points="329.84,206.2,325.3927,197.4124,325.965,203.0402,320.3371,203.6125,329.84,206.2" style="stroke:#1A83AF;stroke-width:2.0;"/></g><!--SRC=[ZP11Jy9048Nl_8fDE9EqDWfSJ2e9qGinuisOPhixMpQqkyti54JZVvU2cdLRmEkyRzwyDoijWK5LquvLKEM0Rk3MsjGSUSLIHBkTsT8Y6oh5LJ8EnRarT15Oy0hOFPGR82ruI3olj5WRS8vTUT8T5-i2RMFaqPwG6xUNm917pKhkN4g4Ecy8l31oca-K2idGT9Z8U7m37SoY1Fn6eYYIyJH4Bfuws_kNMEftOB7_j8KbwCJid3XGPrEsX1UoK_H7FvdnaKkfJS6klTdJCHCQm3_pvOfBksrfnKlddt4429PsDSmwhM0waMhS2p-SWaNxELQ8Eilt11YPES2D5i0-1f-UgYnkERO5CcpAK7Mkp0GWQRNlJA5A70kW0rIZVTiTv3xJqSimJYT9EdyTtVPk3dhjEcj1bNzk1IM-0000]--></g></svg>

<svg xmlns="http://www.w3.org/2000/svg" width="456" height="252" viewBox="0 0 456 252"><rect width="215" height="39.789" x="7" y="206.58" fill="#3D176E" rx="2.5" ry="2.5" style="stroke:#000d19;stroke-width:.5"/><circle cx="22" cy="226.475" r="11" fill="#ADD1B2" style="stroke:#181818;stroke-width:1"/><path d="M24.969 232.115q-.578.297-1.219.438-.64.156-1.344.156-2.5 0-3.828-1.64-1.312-1.657-1.312-4.782t1.312-4.781q1.328-1.656 3.828-1.656.703 0 1.344.156.656.156 1.219.453v2.719q-.625-.578-1.219-.844-.594-.281-1.219-.281-1.343 0-2.031 1.078-.687 1.062-.687 3.156t.687 3.172q.688 1.062 2.031 1.062.625 0 1.219-.265.594-.281 1.219-.86z"/><text x="41" y="232.36" fill="#D9B8FF" font-family="Helvetica" font-size="17" textLength="173">gcp_backend_service</text><rect width="212" height="39.789" x="127.5" y="7" fill="#3D176E" rx="2.5" ry="2.5" style="stroke:#000d19;stroke-width:.5"/><circle cx="142.5" cy="26.895" r="11" fill="#ADD1B2" style="stroke:#181818;stroke-width:1"/><path d="M145.469 32.535q-.578.297-1.219.438-.64.156-1.344.156-2.5 0-3.828-1.64-1.312-1.657-1.312-4.782t1.312-4.781q1.328-1.656 3.828-1.656.703 0 1.344.156.656.156 1.219.453v2.719q-.625-.578-1.219-.844-.594-.281-1.219-.281-1.344 0-2.031 1.078-.687 1.062-.687 3.156t.687 3.172q.688 1.062 2.031 1.062.625 0 1.219-.265.594-.281 1.219-.86z"/><text x="161.5" y="32.78" fill="#D9B8FF" font-family="Helvetica" font-size="17" textLength="170">gcp_forwarding_rule</text><rect width="192" height="39.789" x="257.5" y="206.58" fill="#3D176E" rx="2.5" ry="2.5" style="stroke:#000d19;stroke-width:.5"/><circle cx="272.5" cy="226.475" r="11" fill="#ADD1B2" style="stroke:#181818;stroke-width:1"/><path d="M275.469 232.115q-.578.297-1.219.438-.64.156-1.344.156-2.5 0-3.828-1.64-1.312-1.657-1.312-4.782t1.312-4.781q1.328-1.656 3.828-1.656.703 0 1.344.156.656.156 1.219.453v2.719q-.625-.578-1.219-.844-.594-.281-1.219-.281-1.344 0-2.031 1.078-.687 1.062-.687 3.156t.687 3.172q.688 1.062 2.031 1.062.625 0 1.219-.265.594-.281 1.219-.86z"/><text x="291.5" y="232.36" fill="#D9B8FF" font-family="Helvetica" font-size="17" textLength="150">gcp_ssl_certificate</text><rect width="216" height="39.789" x="125.5" y="106.79" fill="#3D176E" rx="2.5" ry="2.5" style="stroke:#000d19;stroke-width:.5"/><circle cx="140.5" cy="126.684" r="11" fill="#ADD1B2" style="stroke:#181818;stroke-width:1"/><path d="M143.469 132.325q-.578.297-1.219.438-.64.156-1.344.156-2.5 0-3.828-1.64-1.312-1.657-1.312-4.782t1.312-4.781q1.328-1.656 3.828-1.656.703 0 1.344.156.656.156 1.219.453v2.719q-.625-.579-1.219-.844-.594-.281-1.219-.281-1.344 0-2.031 1.078-.687 1.062-.687 3.156t.687 3.172q.688 1.062 2.031 1.062.625 0 1.219-.265.594-.281 1.219-.86z"/><text x="159.5" y="132.57" fill="#D9B8FF" font-family="Helvetica" font-size="17" textLength="174">gcp_target_ssl_proxy</text><path fill="none" d="M233.5 47.22v53.19" style="stroke:#1a83af;stroke-width:2"/><path fill="#1A83AF" d="m233.5 106.41 4-9-4 4-4-4z" style="stroke:#1a83af;stroke-width:2"/><path fill="none" d="M209.99 147.01c-20.86 17.14-46.545 38.24-67.395 55.38" style="stroke:#1a83af;stroke-width:2"/><path fill="#1A83AF" d="m137.96 206.2 9.492-2.625-5.63-.55.55-5.63z" style="stroke:#1a83af;stroke-width:2"/><path fill="none" d="M257.21 147.01c21.04 17.14 46.96 38.258 67.98 55.398" style="stroke:#1a83af;stroke-width:2"/><path fill="#1A83AF" d="m329.84 206.2-4.447-8.788.572 5.628-5.628.573z" style="stroke:#1a83af;stroke-width:2"/></svg>
